src/assets/icons/numbers,simple,09.svg

<svg width="48" height="48" viewBox="0 0 48 48" fill="none" xmlns="http://www.w3.org/2000/svg">
<rect opacity="0.2" x="5" y="5" width="38" height="38" rx="4" fill="black"/>
<path d="M23.7523 13.1463C18.7104 13.1243 15.3088 16.4268 15.3308 20.9624C15.3418 25.1676 18.2591 28.217 22.2551 28.217C24.7321 28.217 26.9338 27.017 27.9355 25.0355H28.0897C28.0787 29.505 26.5265 32.2241 23.5872 32.2241C21.8588 32.2241 20.6149 31.2773 20.2516 29.6371H15.551C15.9913 33.435 19.0737 36.3082 23.5872 36.3082C29.1685 36.3082 32.7683 31.7947 32.7573 24.1438C32.7463 15.9755 28.3869 13.1683 23.7523 13.1463ZM23.7853 16.8892C25.976 16.8892 27.5943 18.6726 27.6163 20.8192C27.6273 22.9769 25.921 24.7603 23.7413 24.7603C21.5396 24.7603 19.9654 23.043 19.9544 20.8303C19.9324 18.6286 21.5726 16.8892 23.7853 16.8892Z" fill="black"/>
</svg>

<svg xmlns="http://www.w3.org/2000/svg" width="48" height="48" fill="none" viewBox="0 0 48 48">
  <rect width="38" height="38" x="5" y="5" fill="#000" opacity=".2" rx="4"/>
  <path fill="#000" d="M23.752 13.146c-5.042-.022-8.443 3.28-8.421 7.816.01 4.206 2.928 7.255 6.924 7.255 2.477 0 4.679-1.2 5.68-3.181h.155c-.011 4.469-1.564 7.188-4.503 7.188-1.728 0-2.972-.947-3.335-2.587H15.55c.44 3.798 3.523 6.671 8.036 6.671 5.582 0 9.181-4.513 9.17-12.164-.01-8.168-4.37-10.976-9.005-10.998zm.033 3.743c2.191 0 3.81 1.784 3.831 3.93.011 2.158-1.695 3.941-3.875 3.941-2.201 0-3.776-1.717-3.787-3.93-.022-2.201 1.619-3.94 3.831-3.94z"/>
</svg>
